static/images/mobile/copyright/wikipedia-wordmark-he.svg

<?xml version="1.0" encoding="UTF-8"?>
<svg viewBox="0 0 75 18" version="1.1" xmlns="http://www.w3.org/2000/svg" xmlns:xlink="http://www.w3.org/1999/xlink">
    <title>ויקיפדיה</title>


        <g id="HEwordmark" fill="#54595D" stroke-width="0" fill-rule="evenodd">
            <path d="M71.3303268,0.304396843 C71.9932388,0.737318963 72.7846627,1.31904933 73.7046222,2.04960541 C74.381063,2.60428688 74.7192784,3.3415963 74.7192784,4.26155581 C74.7192784,5.45209163 74.7057497,8.07664262 74.6786921,12.1352875 C74.1510683,12.8387859 73.6099237,13.3866948 73.0552423,13.7790304 C73.0417135,13.44081 73.0146562,10.9786024 72.9740698,6.39233371 C72.960541,5.58060474 72.8962801,5.01578513 72.7812851,4.69785795 C72.6662902,4.37993077 72.3991001,4.07215481 71.9797068,3.77452086 C71.6956016,3.57158861 71.3235648,3.33145573 70.863585,3.05411499 C70.4036053,2.77677426 70.0586256,2.5569343 69.8286357,2.3945885 C70.2750867,1.62344598 70.7756454,0.92672239 71.3303268,0.304396843 Z M65.1960057,0.304396843 C65.8318601,0.791434228 66.7315128,1.54903657 67.894991,2.57722661 C68.2602691,2.88838938 68.4936377,3.29424778 68.5951038,3.79481398 C68.6965699,4.29538018 68.6526019,4.78241026 68.4631985,5.25591883 C67.9355747,6.4870411 67.2794369,7.58285878 66.4947656,8.54340474 C65.9130265,8.92221159 65.2501244,9.21307678 64.5060395,9.41600902 C65.4801143,7.69784936 66.1430163,6.40586679 66.4947656,5.54002255 C66.7112266,5.01239871 66.5285903,4.50507572 65.9468512,4.01803833 C65.1351223,3.34159752 64.3504627,2.78692437 63.592849,2.35400225 C63.9987135,1.65050381 64.5330937,0.967308839 65.1960057,0.304396843 Z M52.7302302,4.85005637 C52.9061048,8.11050108 53.0752125,11.8511627 53.2375583,16.0721533 C52.8993379,16.7485941 52.4258364,17.3912033 51.8170397,18 C51.6276363,15.8489182 51.3908855,12.2570714 51.1067804,7.22435175 C51.4450008,6.58849738 51.9861453,5.79707351 52.7302302,4.85005637 Z M49.9094861,3.30777903 C50.6265134,2.09018557 51.4382302,0.987603585 52.3446609,-1.42108547e-14 C52.3446609,0.0135288162 52.3514252,0.0777897294 52.364954,0.192784667 C52.3784828,0.307779605 52.3886293,0.382186979 52.3953937,0.416009019 C52.4021581,0.44983106 52.4156867,0.514091973 52.4359799,0.608793687 C52.4562732,0.7034954 52.4799482,0.771138467 52.5070059,0.811724915 C52.5340635,0.852311364 52.567885,0.899661511 52.6084715,0.953776776 C52.6490579,1.00789204 52.6964081,1.04509573 52.7505234,1.06538895 C52.8046386,1.08568218 52.8655174,1.09582864 52.9331615,1.09582864 L59.954582,1.09582864 C60.7392533,1.09582864 61.3514231,1.28861138 61.7911096,1.67418264 C62.2307961,2.0597539 62.4371075,2.75309533 62.4100498,3.75422773 C62.3829922,4.99887883 62.0785984,6.31115432 61.4968593,7.69109357 C60.9151202,9.07103283 60.1778108,10.2074363 59.2849089,11.1003382 C58.7166986,11.6685485 57.952332,12.1792537 56.991786,12.632469 C56.0312401,13.0856843 55.124823,13.3596388 54.2725076,13.4543405 C54.5430839,12.5208522 54.9354137,11.6888424 55.4495087,10.9582864 C56.3424106,10.7418253 57.0560449,10.5219853 57.5904332,10.2987599 C58.1248214,10.0755344 58.6355266,9.75084768 59.1225639,9.32468997 C59.6096013,8.89853225 59.9613453,8.34047696 60.1778063,7.65050733 C60.3942674,6.9605377 60.5024963,6.10147076 60.5024963,5.07328072 C60.5024963,4.51859926 60.3705923,4.08568363 60.1067804,3.77452086 C59.8429685,3.46335808 59.4878424,3.30777903 59.0413914,3.30777903 L49.9094861,3.30777903 Z M45.2768561,0.304396843 C45.9127105,0.791434228 46.8123633,1.54903657 47.9758415,2.57722661 C48.3411195,2.88838938 48.5744881,3.29424778 48.6759542,3.79481398 C48.7774203,4.29538018 48.7334523,4.78241026 48.5440489,5.25591883 C48.0164251,6.4870411 47.3602873,7.58285878 46.575616,8.54340474 C45.9938769,8.92221159 45.3309748,9.21307678 44.5868899,9.41600902 C45.5609647,7.69784936 46.2238668,6.40586679 46.575616,5.54002255 C46.792077,5.01239871 46.6094408,4.50507572 46.0277017,4.01803833 C45.2159727,3.34159752 44.4313131,2.78692437 43.6736994,2.35400225 C44.0795639,1.65050381 44.6139441,0.967308839 45.2768561,0.304396843 Z M35.8550491,0.304396843 C35.8956355,0.31792566 36.0410681,0.368657959 36.2913512,0.456595265 C36.5416343,0.54453257 36.6972134,0.598647024 36.758093,0.618940248 C36.8189727,0.639233472 36.9644053,0.689965772 37.1943952,0.77113867 C37.4243851,0.852311567 37.5833463,0.909808174 37.6712836,0.943630214 C37.7592209,0.977452255 37.9080356,1.03494886 38.1177323,1.11612176 C38.3274289,1.19729466 38.4931544,1.26493772 38.6149138,1.31905299 C38.7366731,1.37316825 38.8922522,1.44419347 39.0816556,1.53213078 C39.271059,1.62006808 39.4401667,1.70462192 39.5889837,1.78579481 C39.7378007,1.86696771 39.900144,1.9549037 40.0760186,2.04960541 C40.2518932,2.14430713 40.4210009,2.24577172 40.5833467,2.35400225 C41.0974417,2.67869384 41.479625,3.04734856 41.7299081,3.45997745 C41.9801912,3.87260635 42.1188595,4.43742595 42.1459172,5.15445321 C42.2270901,6.66968063 42.1797399,8.54339357 42.0038653,10.7756483 C41.6250585,11.9255976 41.1109711,12.7576074 40.461588,13.2717024 L31.7761314,13.2717024 C32.1819959,12.5682039 32.6960832,11.8308945 33.3184087,11.059752 L39.7310355,11.059752 C39.9474966,11.059752 40.1233686,10.9819624 40.2586567,10.8263811 C40.3939449,10.6707997 40.461588,10.4847812 40.461588,10.2683202 C40.4886456,8.40134354 40.4548241,7.02142498 40.3601224,6.12852311 C40.3060071,5.64148573 40.1876317,5.25253809 40.0049927,4.96166855 C39.8223537,4.670799 39.5145777,4.39684458 39.0816556,4.13979707 C38.1346385,3.57158679 36.9373562,3.10484963 35.4897729,2.73957159 C35.1650813,3.077792 34.9418592,3.4904147 34.8200998,3.97745209 C34.6983405,4.46448947 34.7118691,4.87711218 34.8606861,5.21533258 C35.009503,5.5670818 35.5100617,5.97970451 36.3623771,6.45321308 C35.9835703,7.23788442 35.5844762,7.89402216 35.1650829,8.421646 C33.8257301,7.89402216 33.0681277,7.20406289 32.8922531,6.35174746 C32.6622633,5.31002861 33.0207715,4.09245342 33.9677886,2.69898534 C34.6577583,1.72491057 35.2868388,0.92672239 35.8550491,0.304396843 Z M19.5132871,3.30777903 C20.257372,2.09018557 21.1029104,0.987603585 22.0499275,-1.42108547e-14 C22.0499275,0.0270576325 22.0566918,0.0777899324 22.0702206,0.152198422 C22.0837494,0.226606911 22.0938959,0.280721364 22.1006603,0.314543405 C22.1074247,0.348365445 22.114189,0.402479899 22.1209534,0.476888388 C22.1277178,0.551296877 22.1378643,0.60541133 22.1513931,0.639233371 C22.1649219,0.673055411 22.1852148,0.720405558 22.2122725,0.781285231 C22.2393301,0.842164904 22.2630052,0.886132897 22.2832984,0.91319053 C22.3035916,0.940248162 22.334031,0.970687542 22.3746175,1.00450958 C22.4152039,1.03833162 22.4557897,1.0620067 22.4963762,1.07553551 C22.5369626,1.08906433 22.5843128,1.09582864 22.6384281,1.09582864 L27.3058463,1.09582864 C27.698182,0.635848884 28.0769832,0.270576325 28.4422612,-1.42108547e-14 C28.4693188,0.243518692 28.4828474,0.608791251 28.4828474,1.09582864 L30.7962635,1.09582864 C30.5798024,1.79932708 30.2212941,2.53663651 29.7207279,3.30777903 L28.4828474,3.30777903 L28.4828474,12.054115 C28.0228677,12.7305558 27.4817232,13.3055219 26.8593976,13.7790304 L26.6970526,3.30777903 L19.5132871,3.30777903 Z M14.8806571,0.304396843 C15.5165115,0.791434228 16.4161642,1.54903657 17.5796424,2.57722661 C17.9449205,2.88838938 18.1782891,3.29424778 18.2797552,3.79481398 C18.3812213,4.29538018 18.3372533,4.78241026 18.1478499,5.25591883 C17.620226,6.4870411 16.9640883,7.58285878 16.179417,8.54340474 C15.5976779,8.92221159 14.9347758,9.21307678 14.1906909,9.41600902 C15.1647657,7.69784936 15.8276677,6.40586679 16.179417,5.54002255 C16.395878,5.01239871 16.2132417,4.50507572 15.6315026,4.01803833 C14.8197737,3.34159752 14.0351141,2.78692437 13.2775004,2.35400225 C13.6833649,1.65050381 14.2177451,0.967308839 14.8806571,0.304396843 Z M2.73957159,5.17474634 C2.78015804,7.96168248 2.75986512,10.2412538 2.67869222,12.0135287 C2.04283786,12.8117289 1.46110749,13.4002236 0.933483653,13.7790304 C0.879368388,12.9808303 0.872604081,10.8703666 0.91319053,7.4475761 C1.23788212,6.91995227 1.84666972,6.16234992 2.73957159,5.17474634 Z M11.6888388,12.0135287 C11.2153302,12.6493831 10.6538928,13.2378778 10.0045096,13.7790304 C9.95039432,13.0214167 9.90980848,11.9222169 9.88275085,10.481398 C9.85569321,9.04057904 9.8421646,7.78580016 9.8421646,6.71702368 L9.8421646,5.11386697 C9.82863578,4.50507024 9.65276381,4.05186169 9.3145434,3.75422773 C8.976323,3.45659378 8.61105044,3.30777903 8.21871477,3.30777903 L-1.0658141e-14,3.30777903 C0.608796731,2.22547373 1.40022061,1.12289175 2.37429538,-1.42108547e-14 C2.45546828,0.581739098 2.57046149,0.919954431 2.71927847,1.01465614 C2.78692255,1.06877141 2.86809423,1.09582864 2.96279594,1.09582864 L8.40135287,1.09582864 C9.26719711,1.09582864 10.0315638,1.37316521 10.6944758,1.92784667 C11.3573878,2.48252814 11.6888388,3.11160866 11.6888388,3.8151071 L11.6888388,12.0135287 Z" id="ויקיפדיה"></path>
        </g>
</svg>

<?xml version="1.0" encoding="UTF-8"?><svg viewBox="0 0 75 18" xmlns="http://www.w3.org/2000/svg"><title>ויקיפדיה</title><g id="HEwordmark" fill="#54595D" stroke-width="0" fill-rule="evenodd"><path d="M71.33.304a32.75 32.75 0 0 1 2.375 1.746c.676.554 1.014 1.292 1.014 2.212 0 1.19-.013 3.815-.04 7.873-.528.704-1.07 1.252-1.624 1.644-.013-.338-.04-2.8-.08-7.387-.014-.811-.079-1.376-.194-1.694-.115-.318-.382-.626-.801-.923a17.706 17.706 0 0 0-1.116-.72c-.46-.278-.805-.498-1.035-.66.446-.772.947-1.468 1.501-2.09zm-6.134 0c.636.487 1.536 1.245 2.699 2.273.365.311.599.717.7 1.218.102.5.058.987-.132 1.46a13.674 13.674 0 0 1-1.968 3.288 6.985 6.985 0 0 1-1.989.873c.974-1.718 1.637-3.01 1.989-3.876.216-.528.034-1.035-.548-1.522a16.52 16.52 0 0 0-2.354-1.664 9.952 9.952 0 0 1 1.603-2.05zM52.73 4.85c.176 3.26.345 7.001.508 11.222-.339.677-.812 1.32-1.421 1.928-.19-2.151-.426-5.743-.71-10.776.338-.636.88-1.427 1.623-2.374zm-2.82-1.542A19.518 19.518 0 0 1 52.344 0c0 .014.006.078.02.193.013.115.024.19.03.223l.041.193c.02.094.044.162.071.203.027.04.06.088.101.142.041.054.088.091.143.111.054.02.115.03.182.03h7.022c.784 0 1.396.194 1.836.58.44.385.646 1.078.619 2.08-.027 1.244-.331 2.556-.913 3.936-.582 1.38-1.32 2.516-2.212 3.41-.568.568-1.333 1.078-2.293 1.531-.96.454-1.867.728-2.72.822a8.328 8.328 0 0 1 1.178-2.496c.892-.216 1.606-.436 2.14-.66a5.62 5.62 0 0 0 1.533-.973c.487-.426.838-.985 1.055-1.674.216-.69.324-1.55.324-2.578 0-.554-.131-.987-.395-1.298-.264-.312-.62-.467-1.066-.467H49.91zM45.276.304c.636.487 1.535 1.245 2.699 2.273.365.311.598.717.7 1.218.101.5.057.987-.132 1.46a13.674 13.674 0 0 1-1.968 3.288 6.985 6.985 0 0 1-1.99.873c.975-1.718 1.638-3.01 1.99-3.876.216-.528.033-1.035-.548-1.522a16.52 16.52 0 0 0-2.354-1.664 9.952 9.952 0 0 1 1.603-2.05zm-9.422 0l.436.153c.25.088.406.142.467.162a36.534 36.534 0 0 1 1.36.497 11.56 11.56 0 0 1 .964.416c.19.088.358.173.507.254l.487.264c.176.094.345.196.507.304.514.325.897.693 1.147 1.106.25.413.389.977.416 1.694.081 1.516.034 3.39-.142 5.622-.379 1.15-.893 1.982-1.542 2.496h-8.686c.406-.704.92-1.441 1.542-2.212h6.413a.666.666 0 0 0 .528-.234.822.822 0 0 0 .203-.558c.027-1.867-.007-3.247-.102-4.14-.054-.487-.172-.875-.355-1.166-.183-.291-.49-.565-.923-.822-.947-.568-2.145-1.035-3.592-1.4-.325.338-.548.75-.67 1.237-.122.487-.108.9.04 1.238.15.352.65.765 1.502 1.238-.378.785-.778 1.441-1.197 1.969-1.34-.528-2.097-1.218-2.273-2.07-.23-1.042.129-2.26 1.076-3.653.69-.974 1.319-1.772 1.887-2.395zM19.513 3.308A19.297 19.297 0 0 1 22.05 0c0 .027.007.078.02.152l.03.163c.007.033.014.087.021.162a.627.627 0 0 0 .03.162l.061.142c.027.061.051.105.071.132.02.027.051.058.092.092a.38.38 0 0 0 .121.07.45.45 0 0 0 .142.02h4.668c.392-.46.771-.824 1.136-1.095.027.244.04.609.04 1.096h2.314c-.216.703-.575 1.44-1.075 2.212h-1.238v8.746a7.316 7.316 0 0 1-1.624 1.725l-.162-10.471h-7.184zM14.881.304c.636.487 1.535 1.245 2.699 2.273.365.311.598.717.7 1.218.101.5.057.987-.132 1.46a13.675 13.675 0 0 1-1.969 3.288 6.985 6.985 0 0 1-1.988.873c.974-1.718 1.637-3.01 1.988-3.876.217-.528.034-1.035-.547-1.522a16.52 16.52 0 0 0-2.354-1.664A9.952 9.952 0 0 1 14.88.304zM2.74 5.174c.04 2.788.02 5.067-.061 6.84-.636.798-1.218 1.386-1.746 1.765-.054-.798-.06-2.909-.02-6.331.325-.528.934-1.286 1.827-2.273zm8.949 6.84a10.337 10.337 0 0 1-1.684 1.765 67.814 67.814 0 0 1-.122-3.298c-.027-1.44-.04-2.695-.04-3.764V5.114c-.014-.609-.19-1.062-.528-1.36-.339-.297-.704-.446-1.096-.446H0C.609 2.225 1.4 1.123 2.374 0c.081.582.196.92.345 1.015a.378.378 0 0 0 .244.08H8.4c.866 0 1.63.278 2.293.833.663.555.995 1.184.995 1.887v8.199z" id="ויקיפדיה"/></g></svg>
